dist/img/common/icons/sferum.svg

<svg xmlns="http://www.w3.org/2000/svg" width="16" height="16" viewBox="0 0 16 16" fill="none">
<g clip-path="url(#clip0_731_1064)">
<path fill-rule="evenodd" clip-rule="evenodd" d="M11.7915 2.02309C12.1815 2.41313 12.4246 2.90778 12.5357 3.46423C13.0922 3.57538 13.5869 3.8185 13.977 4.20852C16.6743 6.9062 16.6744 11.2796 13.977 13.977C11.2796 16.6744 6.90588 16.6744 4.20848 13.977C3.81849 13.587 3.5754 13.0923 3.46425 12.5359C2.90772 12.4248 2.41315 12.1816 2.02304 11.7915C-0.674345 9.09416 -0.674345 4.72044 2.02304 2.02307C4.72044 -0.674308 9.09348 -0.674296 11.7912 2.02274L11.7915 2.02309ZM1.93282 8.37992C1.76303 9.02992 1.72334 9.619 1.80642 10.1339C1.89064 10.6568 2.09876 11.0782 2.41738 11.3968C2.6739 11.6534 3.00343 11.8398 3.39586 11.9462C3.32765 10.1983 4.34724 7.99116 6.16904 6.16908C7.99112 4.3468 10.1987 3.3273 11.9468 3.39586C11.8409 3.00261 11.6552 2.67634 11.3965 2.41774C10.9778 1.99877 10.3618 1.76525 9.5948 1.76525C8.8344 1.76525 7.95492 1.99248 7.053 2.43363C6.1198 2.89012 5.19388 3.56205 4.37796 4.378C3.15056 5.60508 2.28582 7.02876 1.93282 8.37992Z" fill="white"/>
</g>
<defs>
<clipPath id="clip0_731_1064">
<rect width="16" height="16" fill="white"/>
</clipPath>
</defs>
</svg>

<svg xmlns="http://www.w3.org/2000/svg" width="16" height="16" fill="none"><g clip-path="url(#clip0_731_1064)"><path fill-rule="evenodd" clip-rule="evenodd" d="M11.791 2.023c.39.39.634.885.745 1.441.556.111 1.05.354 1.441.745a6.908 6.908 0 01-9.769 9.768c-.39-.39-.633-.885-.744-1.441-.556-.111-1.05-.354-1.441-.745a6.907 6.907 0 019.768-9.768zM1.933 8.38c-.17.65-.21 1.239-.127 1.754.085.523.293.944.611 1.263.257.256.586.443.979.55-.068-1.749.951-3.956 2.773-5.778 1.822-1.822 4.03-2.842 5.778-2.773a2.143 2.143 0 00-.55-.978c-.42-.42-1.035-.653-1.802-.653-.76 0-1.64.227-2.542.669-.933.456-1.86 1.128-2.675 1.944-1.227 1.227-2.092 2.65-2.445 4.002z" fill="#fff"/></g><defs><clipPath id="clip0_731_1064"><path fill="#fff" d="M0 0h16v16H0z"/></clipPath></defs></svg>
